icone/marchio-pausa-caffe.svg

<svg width="654" height="223" viewBox="0 0 654 223" fill="none" xmlns="http://www.w3.org/2000/svg">
<path d="M51.7103 196.78C67.6621 213.591 89.8226 223.048 112.986 223C158.74 223 201.581 189.091 212.852 179.491C213.329 179.157 213.807 178.774 214.237 178.345C214.285 178.297 214.332 178.297 214.332 178.297C224.744 169.222 242.463 148.16 244.421 109.045C246.14 74.7536 232.147 56.7004 218.44 51.2558C210.75 48.1992 203.109 49.2977 199.049 54.1214C197.091 56.4139 193.318 62.9092 199.909 73.9895C208.888 88.3174 206.309 106.992 193.748 118.358C184.626 106.418 174.739 95.0993 164.089 84.4489C128.269 48.629 84.6168 19.8299 70.4321 34.0145C70.05 34.3966 69.7157 34.8265 69.4292 35.3041C69.3336 35.3996 69.2381 35.4951 69.1426 35.5906C67.9964 36.8801 66.5158 38.695 64.7965 40.8442C58.1101 33.2982 49.179 28.1879 39.2927 26.2297C29.502 24.9402 19.6635 28.5222 12.9771 35.7817C2.18339 46.05 -2.35379 61.3331 1.18043 75.8044C3.61618 85.4518 8.72648 94.1919 15.8427 101.117C19.6635 104.89 23.9141 108.233 28.499 110.956C21.9082 138.752 24.6783 169.796 51.7103 196.78ZM30.3139 59.1362C31.1258 57.4168 32.5586 56.0796 34.3257 55.4587C35.854 55.0288 37.5256 55.2199 38.9107 56.0318C42.5404 58.2765 45.6926 61.2376 48.1283 64.7718C44.5463 70.6941 41.2987 76.8073 38.3853 83.0638C31.9377 77.6192 25.3946 68.4971 30.3139 59.1362ZM57.4415 191.001C8.43993 141.999 47.4597 77.2371 67.5188 50.5872C68.1874 53.5961 69.1426 56.5572 70.3366 59.4227C77.8826 78.0491 96.7478 103.553 120.819 127.624L123.541 130.298C147.851 154.083 177.987 176.578 197.903 180.924C171.253 200.983 106.443 240.002 57.4415 191.001ZM80.4139 61.9063C92.5927 62.1928 103.959 68.0195 111.362 77.7147C116.902 85.1175 116.855 94.3829 116.855 103.314C116.855 106.18 116.855 109.045 117.046 111.911C102.622 97.0097 90.3002 80.1982 80.4139 61.9063ZM206.882 69.7389C204.16 65.2017 203.539 61.2854 205.21 59.3272C208.219 57.178 212.183 56.9392 215.383 58.7541C225.938 62.957 237.735 78.5267 236.206 108.568C234.391 144.626 218.296 163.873 208.888 172.088C208.792 172.136 208.792 172.231 208.697 172.327C208.649 172.422 208.458 172.422 208.41 172.518C208.219 172.613 207.98 172.757 207.789 172.9C203.634 175.049 193.175 172.231 178.704 163.73C191.264 160.817 202.583 153.892 210.941 144.005C211.944 142.907 212.231 141.331 211.706 139.946C211.18 138.561 209.986 137.51 208.506 137.319C207.025 137.08 205.545 137.701 204.637 138.847C195.419 149.402 182.524 155.993 168.578 157.33C160.221 151.551 152.149 145.295 144.508 138.561C146.609 138.847 148.758 139.038 151.146 139.182C166.859 140.662 182.524 136.459 195.419 127.385L195.467 127.337C213.95 114.203 218.917 88.9383 206.882 69.7389ZM158.31 90.1323C168.674 100.496 178.369 111.529 187.253 123.182C176.459 129.391 164.041 132.113 151.624 131.062C140.687 130.489 133.475 128.245 129.606 124.233C124.974 119.457 124.974 112.006 125.022 103.314C125.022 93.5232 125.069 82.3952 117.905 72.7955C108.115 60.1869 92.8792 53.0707 76.9275 53.6438C73.8708 45.0471 75.0171 41.4651 75.6857 40.3188L75.7812 40.1278C75.8767 39.9368 76.02 39.7935 76.1633 39.6502C82.8019 33.1549 117.237 49.1066 158.31 90.1323ZM21.5739 95.3859C15.5084 89.5114 11.21 82.1086 9.10856 73.9417C6.29073 62.1928 9.96823 49.823 18.8038 41.5128C23.7231 36.0682 30.9825 33.3937 38.2898 34.2533C46.7433 36.116 54.2893 40.7009 59.8295 47.2918C57.6325 50.3006 55.2445 53.6916 52.761 57.4646C50.0387 53.9781 46.6955 51.0648 42.8747 48.8678C39.5793 47.0052 35.663 46.5754 32.0333 47.6738C28.1647 48.9156 24.9648 51.6857 23.1977 55.3154C16.177 68.4971 24.1051 82.443 35.1376 90.8009C33.5616 94.6695 32.1288 98.6813 30.887 102.789C27.4483 100.687 24.3917 98.2037 21.5739 95.3859Z" fill="#F9F5F1"/>
<path d="M69.0474 139.326C54.7672 153.558 52.1882 174.19 63.2685 185.318C64.6057 186.608 66.0863 187.754 67.7101 188.662C67.7579 188.709 67.8534 188.709 67.9012 188.757C71.913 191.05 76.4502 192.196 81.0351 192.148C91.7333 191.766 101.858 187.229 109.213 179.492C123.494 165.259 126.073 144.627 114.992 133.499C103.912 122.371 83.2798 125.093 69.0474 139.326ZM74.8263 145.105C80.653 138.896 88.7244 135.171 97.2257 134.741C99.0883 134.741 100.951 135.027 102.766 135.601C101.524 138.084 100.76 140.806 100.473 143.576C100.187 149.976 95.0287 155.134 88.6289 155.421C78.6471 156.233 70.6712 164.161 69.8593 174.19C69.716 175.862 69.2862 177.486 68.6176 179.014C61.2626 170.943 63.9849 155.898 74.8263 145.105ZM103.482 173.808C94.9332 182.357 83.8529 185.844 75.5427 183.36C76.7845 180.877 77.5964 178.154 77.883 175.337C78.1695 168.937 83.3276 163.779 89.7274 163.492C99.7092 162.68 107.685 154.752 108.497 144.723C108.64 143.051 109.07 141.427 109.739 139.899C117.046 147.97 114.371 162.967 103.482 173.808Z" fill="#F9F5F1"/>
<path d="M178.704 41.2267C180.28 41.6088 181.856 41.8476 183.48 41.8476C186.966 41.9431 190.357 40.6536 192.888 38.2656C196.327 34.3971 197.473 29.0002 195.849 24.081C194.273 18.5408 191.264 13.4783 187.109 9.46647C183.097 5.31137 178.035 2.30251 172.495 0.726433C167.576 -0.8974 162.179 0.248835 158.31 3.68754C154.871 7.55608 153.725 12.9529 155.349 17.8722C156.925 23.4123 159.934 28.4749 164.089 32.4867C168.101 36.6896 173.116 39.6984 178.704 41.2267ZM164.089 9.46647C165.092 8.6068 166.382 8.17696 167.719 8.27248C168.674 8.27248 169.629 8.41576 170.584 8.65456C174.692 9.84855 178.417 12.141 181.426 15.2454C184.53 18.2065 186.823 21.9318 188.017 26.0869C188.829 28.2361 188.542 30.6718 187.205 32.5345C185.342 33.8717 182.906 34.206 180.757 33.3464C176.65 32.1524 172.925 29.8599 169.916 26.7555C166.811 23.7944 164.519 20.0691 163.325 15.9618C162.417 13.7649 162.704 11.3291 164.089 9.46647Z" fill="#F9F5F1"/>
<path d="M584.92 60.101C584.92 53.4292 586.161 47.5719 588.644 42.5292C591.204 37.4865 594.656 33.6076 599.001 30.8923C603.345 28.177 608.194 26.8193 613.547 26.8193C618.124 26.8193 622.119 27.7503 625.533 29.6122C629.024 31.4741 631.7 33.9179 633.562 36.9435V27.7503H653.462V92.6845H633.562V83.4913C631.623 86.5169 628.908 88.9606 625.416 90.8226C622.003 92.6845 618.008 93.6154 613.43 93.6154C608.155 93.6154 603.345 92.2578 599.001 89.5425C594.656 86.7496 591.204 82.8319 588.644 77.7892C586.161 72.6689 584.92 66.7729 584.92 60.101ZM633.562 60.2174C633.562 55.2523 632.166 51.3345 629.373 48.4641C626.658 45.5936 623.322 44.1584 619.365 44.1584C615.409 44.1584 612.034 45.5936 609.241 48.4641C606.526 51.2569 605.168 55.1359 605.168 60.101C605.168 65.0661 606.526 69.0227 609.241 71.9707C612.034 74.8412 615.409 76.2764 619.365 76.2764C623.322 76.2764 626.658 74.8412 629.373 71.9707C632.166 69.1003 633.562 65.1825 633.562 60.2174Z" fill="#F9F5F1"/>
<path d="M553.894 93.6154C548.23 93.6154 543.188 92.6457 538.766 90.7062C534.344 88.7667 530.853 86.129 528.292 82.7931C525.732 79.3796 524.297 75.5782 523.987 71.3889H543.653C543.886 73.6387 544.933 75.4618 546.795 76.8582C548.657 78.2547 550.946 78.9529 553.661 78.9529C556.144 78.9529 558.044 78.4874 559.363 77.5564C560.76 76.5479 561.458 75.2678 561.458 73.7162C561.458 71.8543 560.488 70.4967 558.549 69.6433C556.609 68.7124 553.467 67.7038 549.123 66.6177C544.468 65.5316 540.589 64.4067 537.486 63.243C534.382 62.0017 531.706 60.101 529.456 57.5409C527.206 54.9032 526.081 51.3733 526.081 46.9513C526.081 43.2274 527.09 39.8527 529.107 36.8271C531.202 33.7239 534.227 31.2802 538.184 29.4958C542.218 27.7115 546.989 26.8193 552.497 26.8193C560.643 26.8193 567.044 28.8364 571.698 32.8706C576.431 36.9047 579.146 42.2577 579.844 48.9295H561.458C561.147 46.6797 560.139 44.8954 558.432 43.5765C556.803 42.2577 554.631 41.5983 551.915 41.5983C549.588 41.5983 547.804 42.0637 546.562 42.9947C545.321 43.8481 544.701 45.0506 544.701 46.6021C544.701 48.4641 545.67 49.8605 547.61 50.7915C549.627 51.7224 552.73 52.6534 556.919 53.5843C561.729 54.8256 565.647 56.0669 568.673 57.3081C571.698 58.4718 574.336 60.4113 576.586 63.1266C578.913 65.7643 580.116 69.333 580.193 73.8326C580.193 77.634 579.107 81.0475 576.935 84.0731C574.84 87.0212 571.776 89.3485 567.742 91.0553C563.785 92.7621 559.169 93.6154 553.894 93.6154Z" fill="#F9F5F1"/>
<path d="M516.676 27.748V92.6822H496.776V83.8381C494.759 86.7086 492.005 89.036 488.514 90.8203C485.101 92.527 481.299 93.3804 477.11 93.3804C472.145 93.3804 467.762 92.2943 463.96 90.1221C460.159 87.8723 457.211 84.6527 455.116 80.4634C453.021 76.2741 451.974 71.3478 451.974 65.6845V27.748H471.757V63.008C471.757 67.3525 472.882 70.7272 475.132 73.1321C477.381 75.5371 480.407 76.7396 484.208 76.7396C488.087 76.7396 491.152 75.5371 493.402 73.1321C495.651 70.7272 496.776 67.3525 496.776 63.008V27.748H516.676Z" fill="#F9F5F1"/>
<path d="M373.109 60.101C373.109 53.4292 374.351 47.5719 376.833 42.5292C379.393 37.4865 382.846 33.6076 387.19 30.8923C391.535 28.177 396.383 26.8193 401.736 26.8193C406.313 26.8193 410.309 27.7503 413.722 29.6122C417.213 31.4741 419.89 33.9179 421.752 36.9435V27.7503H441.651V92.6845H421.752V83.4913C419.812 86.5169 417.097 88.9606 413.606 90.8226C410.192 92.6845 406.197 93.6154 401.62 93.6154C396.344 93.6154 391.535 92.2578 387.19 89.5425C382.846 86.7496 379.393 82.8319 376.833 77.7892C374.351 72.6689 373.109 66.7729 373.109 60.101ZM421.752 60.2174C421.752 55.2523 420.355 51.3345 417.563 48.4641C414.847 45.5936 411.511 44.1584 407.555 44.1584C403.598 44.1584 400.223 45.5936 397.431 48.4641C394.715 51.2569 393.358 55.1359 393.358 60.101C393.358 65.0661 394.715 69.0227 397.431 71.9707C400.223 74.8412 403.598 76.2764 407.555 76.2764C411.511 76.2764 414.847 74.8412 417.563 71.9707C420.355 69.1003 421.752 65.1825 421.752 60.2174Z" fill="#F9F5F1"/>
<path d="M370.197 37.2849C370.197 42.0172 369.111 46.3617 366.939 50.3182C364.767 54.1972 361.431 57.3392 356.931 59.7442C352.431 62.1491 346.846 63.3516 340.174 63.3516H327.839V92.6767H307.939V10.9854H340.174C346.69 10.9854 352.199 12.1103 356.698 14.3601C361.198 16.6099 364.573 19.7131 366.822 23.6696C369.072 27.6262 370.197 32.1646 370.197 37.2849ZM338.661 47.5254C342.462 47.5254 345.294 46.6332 347.156 44.8489C349.018 43.0645 349.949 40.5432 349.949 37.2849C349.949 34.0265 349.018 31.5052 347.156 29.7208C345.294 27.9365 342.462 27.0443 338.661 27.0443H327.839V47.5254H338.661Z" fill="#F9F5F1"/>
<path d="M605.676 175.53C605.676 177.392 605.559 179.332 605.327 181.349H560.292C560.602 185.383 561.882 188.486 564.132 190.658C566.459 192.753 569.291 193.8 572.627 193.8C577.592 193.8 581.044 191.706 582.984 187.516H604.163C603.077 191.783 601.098 195.624 598.228 199.037C595.435 202.451 591.905 205.127 587.638 207.067C583.372 209.006 578.6 209.976 573.325 209.976C566.963 209.976 561.3 208.618 556.335 205.903C551.37 203.188 547.491 199.309 544.698 194.266C541.905 189.223 540.509 183.327 540.509 176.578C540.509 169.828 541.866 163.932 544.582 158.89C547.375 153.847 551.254 149.968 556.219 147.253C561.184 144.537 566.886 143.18 573.325 143.18C579.609 143.18 585.195 144.499 590.082 147.136C594.97 149.774 598.771 153.537 601.486 158.424C604.279 163.312 605.676 169.014 605.676 175.53ZM585.311 170.294C585.311 166.88 584.147 164.165 581.82 162.148C579.493 160.131 576.583 159.122 573.092 159.122C569.756 159.122 566.925 160.092 564.597 162.032C562.347 163.971 560.951 166.725 560.408 170.294H585.311ZM586.707 125.492V139.223L558.662 127.47V111.993L586.707 125.492Z" fill="#F9F5F1"/>
<path d="M538.606 160.632H527.9V209.042H508.001V160.632H500.786V144.108H508.001V142.246C508.001 134.255 510.29 128.204 514.867 124.092C519.444 119.903 526.155 117.808 534.999 117.808C536.473 117.808 537.559 117.847 538.257 117.924V134.798C534.456 134.565 531.779 135.108 530.228 136.427C528.676 137.746 527.9 140.112 527.9 143.526V144.108H538.606V160.632Z" fill="#F9F5F1"/>
<path d="M501.163 160.632H490.457V209.042H470.558V160.632H463.343V144.108H470.558V142.246C470.558 134.255 472.847 128.204 477.424 124.092C482.001 119.903 488.712 117.808 497.556 117.808C499.03 117.808 500.116 117.847 500.814 117.924V134.798C497.013 134.565 494.336 135.108 492.785 136.427C491.233 137.746 490.457 140.112 490.457 143.526V144.108H501.163V160.632Z" fill="#F9F5F1"/>
<path d="M389.133 176.469C389.133 169.797 390.375 163.94 392.857 158.897C395.417 153.855 398.87 149.976 403.214 147.26C407.558 144.545 412.407 143.188 417.76 143.188C422.337 143.188 426.333 144.118 429.746 145.98C433.237 147.842 435.914 150.286 437.776 153.312V144.118H457.675V209.053H437.776V199.859C435.836 202.885 433.121 205.329 429.63 207.191C426.216 209.053 422.221 209.984 417.644 209.984C412.368 209.984 407.558 208.626 403.214 205.911C398.87 203.118 395.417 199.2 392.857 194.157C390.375 189.037 389.133 183.141 389.133 176.469ZM437.776 176.586C437.776 171.62 436.379 167.703 433.586 164.832C430.871 161.962 427.535 160.527 423.579 160.527C419.622 160.527 416.247 161.962 413.455 164.832C410.739 167.625 409.382 171.504 409.382 176.469C409.382 181.434 410.739 185.391 413.455 188.339C416.247 191.209 419.622 192.645 423.579 192.645C427.535 192.645 430.871 191.209 433.586 188.339C436.379 185.468 437.776 181.551 437.776 176.586Z" fill="#F9F5F1"/>
<path d="M304.565 168.088C304.565 160.019 306.31 152.843 309.802 146.559C313.293 140.198 318.141 135.271 324.348 131.78C330.632 128.212 337.73 126.427 345.643 126.427C355.341 126.427 363.642 128.987 370.546 134.108C377.451 139.228 382.067 146.21 384.394 155.054H362.517C360.888 151.641 358.56 149.042 355.535 147.257C352.587 145.473 349.212 144.581 345.411 144.581C339.282 144.581 334.317 146.714 330.515 150.981C326.714 155.248 324.813 160.95 324.813 168.088C324.813 175.225 326.714 180.927 330.515 185.194C334.317 189.461 339.282 191.594 345.411 191.594C349.212 191.594 352.587 190.702 355.535 188.918C358.56 187.133 360.888 184.534 362.517 181.121H384.394C382.067 189.965 377.451 196.947 370.546 202.067C363.642 207.11 355.341 209.631 345.643 209.631C337.73 209.631 330.632 207.886 324.348 204.395C318.141 200.826 313.293 195.9 309.802 189.616C306.31 183.332 304.565 176.156 304.565 168.088Z" fill="#F9F5F1"/>
</svg>

<svg xmlns="http://www.w3.org/2000/svg" width="654" height="223" fill="none" viewBox="0 0 654 223">
  <path fill="#F9F5F1" d="M51.71 196.78c15.952 16.811 38.113 26.268 61.276 26.22 45.754 0 88.595-33.909 99.866-43.509a10.5 10.5 0 0 0 1.385-1.146c.048-.048.095-.048.095-.048 10.412-9.075 28.131-30.137 30.089-69.252 1.719-34.291-12.274-52.345-25.981-57.79-7.69-3.056-15.331-1.957-19.391 2.866-1.958 2.293-5.731 8.788.86 19.869 8.979 14.327 6.4 33.002-6.161 44.368a339 339 0 0 0-29.659-33.91C128.269 48.63 84.617 19.83 70.432 34.016a6.7 6.7 0 0 0-1.003 1.29l-.286.286c-1.147 1.29-2.627 3.104-4.347 5.253A45.94 45.94 0 0 0 39.293 26.23c-9.791-1.29-19.63 2.292-26.316 9.552C2.183 46.05-2.353 61.333 1.18 75.804c2.436 9.648 7.546 18.388 14.663 25.313 3.82 3.773 8.071 7.116 12.656 9.839-6.59 27.796-3.82 58.84 23.211 85.824M30.314 59.136c.812-1.72 2.245-3.056 4.012-3.677a5.93 5.93 0 0 1 4.585.573 30.9 30.9 0 0 1 9.217 8.74 192 192 0 0 0-9.743 18.292c-6.447-5.445-12.99-14.567-8.071-23.928M57.44 191.001c-49-49.002-9.98-113.764 10.08-140.414a53 53 0 0 0 2.818 8.836c7.546 18.626 26.41 44.13 50.482 68.201l2.722 2.674c24.31 23.785 54.446 46.28 74.362 50.626-26.65 20.059-91.46 59.078-140.461 10.077M80.415 61.906c12.179.287 23.545 6.113 30.948 15.809 5.54 7.403 5.493 16.668 5.493 25.599 0 2.866 0 5.731.191 8.597a227.2 227.2 0 0 1-36.632-50.005m126.468 7.833c-2.722-4.537-3.343-8.454-1.672-10.412 3.009-2.149 6.973-2.388 10.173-.573 10.555 4.203 22.352 19.773 20.823 49.814-1.815 36.058-17.91 55.305-27.318 63.52-.096.048-.096.143-.191.239-.048.095-.239.095-.287.191-.191.095-.43.239-.621.382-4.155 2.149-14.614-.669-29.085-9.17 12.56-2.913 23.879-9.838 32.237-19.725a3.95 3.95 0 0 0 .765-4.059c-.526-1.385-1.72-2.436-3.2-2.627-1.481-.239-2.961.382-3.869 1.528-9.218 10.555-22.113 17.146-36.059 18.483-8.357-5.779-16.429-12.035-24.07-18.769 2.101.286 4.25.477 6.638.621 15.713 1.48 31.378-2.723 44.273-11.797l.048-.048c18.483-13.134 23.45-38.399 11.415-57.598M158.31 90.132c10.364 10.364 20.059 21.397 28.943 33.05-10.794 6.209-23.212 8.931-35.629 7.88-10.937-.573-18.149-2.817-22.018-6.829-4.632-4.776-4.632-12.227-4.584-20.919 0-9.79.047-20.919-7.117-30.518a49.6 49.6 0 0 0-40.978-19.152c-3.056-8.597-1.91-12.179-1.241-13.325l.095-.191c.096-.191.239-.334.382-.478 6.639-6.495 41.074 9.457 82.147 50.482M21.574 95.386A45.64 45.64 0 0 1 9.109 73.942a33.71 33.71 0 0 1 9.695-32.43c4.92-5.444 12.179-8.118 19.486-7.259a39.1 39.1 0 0 1 21.54 13.039 254 254 0 0 0-7.069 10.173 34.1 34.1 0 0 0-9.886-8.597 13.87 13.87 0 0 0-10.842-1.194 14.9 14.9 0 0 0-8.835 7.641c-7.021 13.182.907 27.128 11.94 35.486a137 137 0 0 0-4.251 11.988c-3.439-2.102-6.495-4.585-9.313-7.403"/>
  <path fill="#F9F5F1" d="M69.047 139.326c-14.28 14.232-16.859 34.864-5.778 45.992 1.337 1.29 2.817 2.436 4.441 3.344.048.047.143.047.191.095a25.9 25.9 0 0 0 13.134 3.391c10.698-.382 20.823-4.919 28.178-12.656 14.281-14.233 16.86-34.865 5.779-45.993s-31.712-8.406-45.945 5.827m5.78 5.779c5.826-6.209 13.897-9.934 22.399-10.364 1.862 0 3.725.286 5.54.86-1.242 2.483-2.006 5.205-2.293 7.975-.286 6.4-5.444 11.558-11.844 11.845-9.982.812-17.958 8.74-18.77 18.769a15.3 15.3 0 0 1-1.241 4.824c-7.355-8.071-4.633-23.116 6.208-33.909m28.655 28.703c-8.549 8.549-19.63 12.036-27.94 9.552a23.2 23.2 0 0 0 2.341-8.023c.287-6.4 5.445-11.558 11.844-11.845 9.982-.812 17.958-8.74 18.77-18.769a15.3 15.3 0 0 1 1.242-4.824c7.307 8.071 4.632 23.068-6.257 33.909m75.223-132.581c1.576.382 3.152.62 4.776.62a13.2 13.2 0 0 0 9.408-3.581c3.439-3.869 4.585-9.266 2.961-14.185a32.8 32.8 0 0 0-8.74-14.615 32.8 32.8 0 0 0-14.614-8.74C167.576-.897 162.179.25 158.31 3.688c-3.439 3.868-4.585 9.265-2.961 14.184a32.8 32.8 0 0 0 8.74 14.615c4.012 4.203 9.027 7.211 14.615 8.74m-14.615-31.76a5 5 0 0 1 3.63-1.195c.955 0 1.91.144 2.865.383 4.108 1.194 7.833 3.486 10.842 6.59a24.25 24.25 0 0 1 6.591 10.842c.812 2.15.525 4.585-.812 6.448-1.863 1.337-4.299 1.671-6.448.811-4.107-1.194-7.832-3.486-10.841-6.59-3.105-2.962-5.397-6.687-6.591-10.794-.908-2.197-.621-4.633.764-6.496M584.92 60.101q0-10.008 3.724-17.572 3.84-7.564 10.357-11.637t14.546-4.073q6.865 0 11.986 2.793 5.236 2.793 8.029 7.332V27.75h19.9v64.935h-19.9V83.49q-2.908 4.539-8.146 7.332-5.12 2.792-11.986 2.792-7.913 0-14.429-4.072-6.517-4.19-10.357-11.754-3.724-7.68-3.724-17.688m48.642.116q0-7.447-4.189-11.753-4.072-4.305-10.008-4.306-5.934 0-10.124 4.306-4.073 4.19-4.073 11.637 0 7.448 4.073 11.87 4.19 4.305 10.124 4.305 5.936 0 10.008-4.305 4.19-4.305 4.189-11.754m-79.668 33.399q-8.495 0-15.128-2.909-6.633-2.91-10.474-7.913-3.84-5.12-4.305-11.404h19.666q.35 3.375 3.142 5.47 2.793 2.094 6.866 2.094 3.724 0 5.702-1.397 2.095-1.512 2.095-3.84 0-2.793-2.909-4.073-2.91-1.396-9.426-3.025-6.982-1.629-11.637-3.375-4.656-1.862-8.03-5.702-3.375-3.957-3.375-10.59 0-5.586 3.026-10.124 3.142-4.655 9.077-7.331 6.051-2.676 14.313-2.677 12.22 0 19.201 6.052 7.1 6.051 8.146 16.058h-18.386q-.466-3.375-3.026-5.352-2.443-1.98-6.517-1.979-3.49 0-5.353 1.397-1.861 1.28-1.861 3.607 0 2.793 2.909 4.19 3.026 1.395 9.309 2.792 7.215 1.863 11.754 3.724 4.538 1.745 7.913 5.819 3.491 3.956 3.607 10.706 0 5.702-3.258 10.24-3.142 4.422-9.193 6.982-5.935 2.56-13.848 2.56m-37.218-65.867v64.934h-19.9v-8.844q-3.026 4.305-8.262 6.982-5.12 2.56-11.404 2.56-7.447 0-13.15-3.258-5.702-3.375-8.844-9.659t-3.142-14.778V27.748h19.783v35.26q0 6.518 3.375 10.124 3.374 3.608 9.076 3.608 5.819 0 9.194-3.608 3.374-3.608 3.374-10.124v-35.26zM373.109 60.101q0-10.008 3.724-17.572 3.84-7.564 10.357-11.637t14.546-4.073q6.866 0 11.986 2.793 5.237 2.793 8.03 7.332V27.75h19.899v64.935h-19.899V83.49q-2.91 4.539-8.146 7.332-5.12 2.792-11.986 2.792-7.913 0-14.43-4.072-6.517-4.19-10.357-11.754-3.724-7.68-3.724-17.688m48.643.116q0-7.447-4.189-11.753-4.074-4.305-10.008-4.306-5.936 0-10.124 4.306-4.073 4.19-4.073 11.637 0 7.448 4.073 11.87 4.188 4.305 10.124 4.305 5.934 0 10.008-4.305 4.188-4.305 4.189-11.754m-51.555-22.931q0 7.099-3.258 13.033-3.258 5.82-10.008 9.426-6.75 3.608-16.757 3.608h-12.335v29.325h-19.9V10.985h32.235q9.775 0 16.524 3.375t10.124 9.31 3.375 13.615m-31.536 10.24q5.702 0 8.495-2.676t2.793-7.564-2.793-7.564-8.495-2.677h-10.822v20.481zM605.676 175.53q0 2.793-.349 5.819h-45.035q.465 6.051 3.84 9.309 3.49 3.142 8.495 3.142 7.447 0 10.357-6.284h21.179q-1.63 6.401-5.935 11.521-4.19 5.12-10.59 8.03t-14.313 2.909q-9.543 0-16.99-4.073-7.447-4.072-11.637-11.637-4.19-7.564-4.189-17.688 0-10.125 4.073-17.688 4.19-7.565 11.637-11.637 7.447-4.073 17.106-4.073 9.426 0 16.757 3.956t11.404 11.288q4.19 7.332 4.19 17.106m-20.365-5.236q0-5.12-3.491-8.146t-8.728-3.026q-5.004 0-8.495 2.91-3.375 2.909-4.189 8.262zm1.396-44.802v13.731l-28.045-11.753v-15.477zm-48.101 35.14H527.9v48.41h-19.899v-48.41h-7.215v-16.524h7.215v-1.862q0-11.986 6.866-18.154 6.866-6.284 20.132-6.284 2.211 0 3.258.116v16.874q-5.702-.35-8.029 1.629-2.328 1.978-2.328 7.099v.582h10.706z"/>
  <path fill="#F9F5F1" d="M501.163 160.632h-10.706v48.41h-19.899v-48.41h-7.215v-16.524h7.215v-1.862q0-11.986 6.866-18.154 6.866-6.284 20.132-6.284 2.211 0 3.258.116v16.874q-5.702-.35-8.029 1.629-2.328 1.978-2.328 7.099v.582h10.706zm-112.03 15.837q0-10.008 3.724-17.572 3.84-7.563 10.357-11.637 6.516-4.072 14.546-4.072 6.866 0 11.986 2.792 5.237 2.793 8.03 7.332v-9.194h19.899v64.935h-19.899v-9.194q-2.91 4.539-8.146 7.332-5.12 2.793-11.986 2.793-7.914 0-14.43-4.073-6.516-4.19-10.357-11.754-3.724-7.68-3.724-17.688m48.643.117q0-7.448-4.19-11.754-4.073-4.305-10.007-4.305-5.936 0-10.124 4.305-4.074 4.19-4.073 11.637 0 7.448 4.073 11.87 4.188 4.305 10.124 4.306 5.934 0 10.007-4.306 4.19-4.306 4.19-11.753m-133.211-8.498q0-12.103 5.237-21.529 5.236-9.542 14.546-14.779 9.426-5.353 21.295-5.353 14.547 0 24.903 7.681 10.357 7.68 13.848 20.946h-21.877q-2.444-5.12-6.982-7.797-4.422-2.676-10.124-2.676-9.193 0-14.896 6.4-5.702 6.4-5.702 17.107t5.702 17.106q5.703 6.4 14.896 6.4 5.702 0 10.124-2.676 4.538-2.678 6.982-7.797h21.877q-3.49 13.266-13.848 20.946-10.356 7.564-24.903 7.564-11.87 0-21.295-5.236-9.31-5.353-14.546-14.779-5.238-9.426-5.237-21.528"/>
</svg>
